exported-svg/refresh-ccw.svg

<svg height="24" viewBox="0 0 24 24" width="24" xmlns="http://www.w3.org/2000/svg"><path d="m2.76227676 9.99781402h4.73772475c.27614238 0 .5.22385758.5.49999998s-.22385762.5-.5.5h-6c-.27614237 0-.5-.2238576-.5-.5v-5.99999998c0-.27614237.22385763-.5.5-.5.27614238 0 .5.22385763.5.5v4.84413031l3.78635803-3.55759509c2.30592355-2.30707951 5.63423226-3.26979626 8.81569736-2.54994961 3.1814651.71984664 5.7711498 3.02158413 6.8593026 6.09661627.0921201.26032385-.044236.54603609-.3045599.63815615-.2603238.09212005-.5460361-.04423606-.6381561-.30455991-.9736104-2.75134455-3.2906968-4.81079388-6.1372708-5.4548672-2.846574-.64407331-5.82453445.21730483-7.89898289 2.29244561zm19.47544954 4.99999998h-4.7377248c-.2761424 0-.5-.2238576-.5-.5s.2238576-.5.5-.5h6c.2761424 0 .5.2238576.5.5v6c0 .2761424-.2238576.5-.5.5s-.5-.2238576-.5-.5v-4.8441303l-3.786358 3.5575951c-2.3059236 2.3070795-5.6342323 3.2697963-8.8156974 2.5499496-3.18146505-.7198466-5.77114977-3.0215841-6.85930261-6.0966163-.09212006-.2603238.04423606-.546036.30455991-.6381561s.54603608.0442361.63815614.3045599c.97361043 2.7513446 3.29069677 4.8107939 6.13727076 5.4548672 2.8465741.6440733 5.8245345-.2173048 7.8989829-2.2924456z"/></svg>

<?xml version="1.0" encoding="UTF-8"?>
<svg width="24px" height="24px" viewBox="0 0 24 24" version="1.1" xmlns="http://www.w3.org/2000/svg" xmlns:xlink="http://www.w3.org/1999/xlink">
    <!-- Generator: Sketch 55.2 (78181) - https://sketchapp.com -->
    <title>refresh-ccw</title>
    <desc>Created with Sketch.</desc>
    <g id="refresh-ccw" stroke="none" stroke-width="1" fill="none" fill-rule="evenodd">
        <path d="M2.76227676,9.99781402 L7.50000151,9.99781402 C7.77614389,9.99781402 8.00000151,10.2216716 8.00000151,10.497814 C8.00000151,10.7739564 7.77614389,10.997814 7.50000151,10.997814 L1.50000151,10.997814 C1.22385914,10.997814 1.00000151,10.7739564 1.00000151,10.497814 L1.00000151,4.49781402 C1.00000151,4.22167165 1.22385914,3.99781402 1.50000151,3.99781402 C1.77614389,3.99781402 2.00000151,4.22167165 2.00000151,4.49781402 L2.00000151,9.34194433 L5.78635954,5.78434924 C8.09228309,3.47726973 11.4205918,2.51455298 14.6020569,3.23439963 C17.783522,3.95424627 20.3732067,6.25598376 21.4613595,9.3310159 C21.5534796,9.59133975 21.4171235,9.87705199 21.1567996,9.96917205 C20.8964758,10.0612921 20.6107635,9.92493599 20.5186435,9.66461214 C19.5450331,6.91326759 17.2279467,4.85381826 14.3813727,4.20974494 C11.5347987,3.56567163 8.55683825,4.42704977 6.48238981,6.50219055 L2.76227676,9.99781402 Z M22.2377263,14.997814 L17.5000015,14.997814 C17.2238591,14.997814 17.0000015,14.7739564 17.0000015,14.497814 C17.0000015,14.2216716 17.2238591,13.997814 17.5000015,13.997814 L23.5000015,13.997814 C23.7761439,13.997814 24.0000015,14.2216716 24.0000015,14.497814 L24.0000015,20.497814 C24.0000015,20.7739564 23.7761439,20.997814 23.5000015,20.997814 C23.2238591,20.997814 23.0000015,20.7739564 23.0000015,20.497814 L23.0000015,15.6536837 L19.2136435,19.2112788 C16.9077199,21.5183583 13.5794112,22.4810751 10.3979461,21.7612284 C7.21648105,21.0413818 4.62679633,18.7396443 3.53864349,15.6646121 C3.44652343,15.4042883 3.58287955,15.1185761 3.8432034,15.026456 C4.10352725,14.9343359 4.38923948,15.0706921 4.48135954,15.3310159 C5.45496997,18.0823605 7.77205631,20.1418098 10.6186303,20.7858831 C13.4652044,21.4299564 16.4431648,20.5685783 18.5176132,18.4934375 L22.2377263,14.997814 Z" id="Combined-Shape" fill="#000000" fill-rule="nonzero"></path>
    </g>
</svg>
